X:1
T:Portsmouth
O:Stanton Harcourt
R:reel
M:4/4
L:1/4
K:G
P:A
D|G A B/A/G/F/|E2 e2|d B c/B/A/G/|A3 D|
  G A B/A/G/F/|E2 e2|d B c/B/A/B/|G3  |]
P:B
d|g a b/a/g/f/|g d B d|g d c/B/A/G/|A3 D|
  G A B/A/G/F/|E2  e2 |d B c/B/A/B/|G3  |]
</abc>
